resources/images/param_lightning.svg

<svg xmlns="http://www.w3.org/2000/svg" width="24" height="24" viewBox="0 0 24 24"><path d="M20.5,13.5l-1,3h-2l-4.848,3.879M17.5,20.5l-3.529-1.176M12.5,3.5l-2,4,3,6-2,4m3-9-2,3m6,0-2,2v3.8M6.5,7.5l2,3-1,3,4,4,2,5m-9-11-1,2,2,3m9-11,4-1,2.176,2.176M17.5,9.5l2-1v-1l3-2m-7-2,2,1m-9,16-2,1m-2-2,1,1m1-2-1,2,1,2m12-4,2,1,2-2m-17-13-1,2-3,1m7-4,1-2m-6,16,2-1,4-1m-5-13,1,2,3,1m-6,2,1,1" style="fill:none;stroke:#009688;stroke-linecap:round;stroke-linejoin:round"/><rect x="1.5" y="1.5" width="21" height="21" rx="2" transform="translate(24 24) rotate(180)" style="fill:none;stroke:#949494;stroke-linecap:round;stroke-linejoin:round"/></svg>

<svg width="24" height="24" viewBox="0 0 24 24" fill="none" xmlns="http://www.w3.org/2000/svg">
<path d="M20.5 13.5L19.5 16.5H17.5L12.652 20.379M17.5 20.5L13.971 19.324M12.5 3.5L10.5 7.5L13.5 13.5L11.5 17.5M11.5 17.5L7.5 13.5L8.5 10.5L6.5 7.5M11.5 17.5L13.5 22.5M14.5 8.5L12.5 11.5M18.5 11.5L16.5 13.5V17.3M4.5 11.5L3.5 13.5L5.5 16.5M5.5 16.5L3.5 17.5M5.5 16.5L9.5 15.5M14.5 5.5L18.5 4.5L20.676 6.676M17.5 9.5L19.5 8.5V7.5L22.5 5.5M15.5 3.5L17.5 4.5M8.5 20.5L6.5 21.5M4.5 19.5L5.5 20.5M5.5 20.5L6.5 18.5M5.5 20.5L6.5 22.5M18.5 18.5L20.5 19.5L22.5 17.5M5.5 4.5L4.5 6.5L1.5 7.5M5.5 4.5L4.5 2.5M5.5 4.5L8.5 5.5M8.5 3.5L9.5 1.5M2.5 7.5L3.5 8.5" stroke="#FF7C3F" stroke-linecap="round" stroke-linejoin="round"/>
<path d="M3.5 22.5H20.5C21.6046 22.5 22.5 21.6046 22.5 20.5V3.5C22.5 2.39543 21.6046 1.5 20.5 1.5H3.5C2.39543 1.5 1.5 2.39543 1.5 3.5V20.5C1.5 21.6046 2.39543 22.5 3.5 22.5Z" stroke="#949494" stroke-linecap="round" stroke-linejoin="round"/>
</svg>
